X: 8
T: Stay a Wee Bit, Bonnie Lad
S:Northumbrian Minstrelsy
M:C
L:1/8
K:D
DFAF dFE2 | DFAF BABd |
GeFd eFEF | DFAd BABd :|
adab afdf | adab abaf |
adab afdf | dABA dABd |
adab afdf | adab abaf |
gbaf edef | dABA dABd |]

%%sep 2 1 500
%%sep 1 1 500

